X:1
T:Konvulsionsl\aaten
C:Anders (Stake) Norudde
S:printed page of unknown origin
M:4/4
L:1/8
K:Ddor
|: DEFD  E2ED- | DEFD  E2E2  | DEFG  A2GF  | EFE2  D3  :|
|: cAcA  c2AB- | BGBG  B2Gc- | cAcd- dcBA- | ABcd- dddd | 
|  dcBA- AF2c  | cBAG- GE2E  | DEFG  A2GF  | EFE2  D3  :|
